!!!COM: Music21
!!!OTL: barndance_Hanter-Dro-Kist
!!!OMV: barndance_Hanter-Dro-Kist
**kern
*clefG2
*k[]
*M4/4
=1
4ee
16eeLL
16ddJJ
4cc
4ee
[8a
=
*M3/8
8a]
4a
=
*M4/4
4ee
16eeLL
16ddJJ
4cc
4dd
[8ee
=
*M3/8
8ee]
4gg
=
*M4/4
4ee
16eeLL
16ddJJ
4cc
4ee
[8a
=
*M3/8
8a]
4a
=
*M4/4
4ee
16eeLL
16ddJJ
4cc
4dd
[8ee
!!linebreak:original
=
*M3/8
4.ee]
=
*M4/4
4ee
16eeLL
16eeJJ
4ff
4ee
[8b
=
*M5/16
4b]
16cc
=
*M4/4
4dd
16ccLL
16bJJ
4a
16bLL
16ccJJ
4b
=
*M1/4
4g
=
*M4/4
4ee
16eeLL
16eeJJ
4ff
4ee
[8b
=
*M5/16
4b]
16cc
!!linebreak:original
=
*M4/4
4dd
16eeLL
16ddJJ
4cc
4b
[8a
=
*M3/8
4.a]
=
*-
